X: 58
T: Rusishe Sher
R: sher
O:
Q: 1/4=108
B: German Goldenshteyn "Shpilt klezmorimlach klingen zoln di gesalach" New York 2003 v.3 #58
Z: 2013 John Chambers <jc:trillian.mit.edu>
M: 2/4
L: 1/16
K: Em
|:\
(^DF)E2 E4 | (FA)G2 G4 | F3E ^D2E2 | F6 B,2 |\
FFFF B,2F2 | (AB)A2 A4 | G3F (EFGA) | B8 |
z2(cB ABcd) | e3c B4 | ~B2E2 F2G2 | {^A}(3B2A2G2 (3G2F2E2 |\
F2{=A}G2- GB,EF | {A}G2FE ^DEFD | E8- |[1 E4 B,4 :|[2 E2B,2E2F2 |]
|: G3F E4- | E2F2G2A2 | GAGE FGF^D | E2 B2B2B2 |\
A3G F4- | F2F2G2A2 | {A}GFE2 B4 | (B^A)(AG) (GF)(FE) |
c3B A4- | A2F2G2A2 | (BcBA) G4 | z2B,2E2F2 |\
{A}G6 F2 | {A}(3G2F2E2 (^DE)FD |[1 E8- | E2B,2E2F2 :|[2 E2e4^d2 | =d8 |]
|:\
Bc^cd edcd | gdBd dcAF | A3B (dc)BA | (^AB)B2- B2B2 |\
Bc^cd edcd | gdBd dcAF | A3B dcBA |[1 (^AB)G2- G4 :|[2 G2 B,2E2F2 |]
[|\
G3F E4- | E2F2G2A2 | GAGE FGF^D | E2 B2B2B2 |\
A3G F4- | F2F2G2A2 | {A}(3G2F2E2 B4 | (3(B2^A2)G2 (3(G2F2)E2 |
(c3B) A4- | A2F2G2A2 | (BcBA) G4 | z2B,2E2F2 |\
{A}G6 F2 | {A}(3G2F2E2 ^DEFD | E8- | E4 zEGB |]
|:\
e8- | e6 (dc) | B2 e6- | e4 z2B2 |\
e2f2 g3f | (3g2f2e2 (de)dc | B8- | B4 z2B2 |
e2f2 g3f | (3g2f2e2 (dedc) | B8- | B4- BBc^c |\
d3^c d2e2 | (de)d2 c2B2 | (AB)A2 G2F2 | E4 (3E2G2A2 |
B2BB BBBB | d2c2B2A2 | B8- | B4- BBc^c |\
d3^c d2e2 | (de)d2 c2B2 | (AB)A2 G2F2 | E4 (3(E2G2A2) |
B2BB !//!B4 | d2c2 B2A2 |[1 B2 E6- | E4- EEGB :|[2 B2 E6- | E4 z2E2 |]\
A2G4F2 | A2G4F2 | A2A2 G2F2 | (GF)E2- E2E2 |
A2A2 A2A2 | A2G2 B2A2 | G8- | G6E2 |\
A2A2 A2A2 | A2G2 B2A2 | G8- | G6D2 |
G2A2 B2A2 | A2G4F2 | A2A2 G2F2 | F2E4E2 |\
G2F2 A2F2 | G2D2E2=F2 | E4 G^GA^A | B4 z2D2 |
G2A2 B2A2 | A2G4F2 | A2A2 G2F2 | F2E4E2 |\
G2F2 A2F2 | G2D2 E2=F2 | E8- | E4z4 |]
